public/library/0x-icon-dark.svg

<svg width="64" height="64" viewBox="0 0 64 64" fill="none" xmlns="http://www.w3.org/2000/svg">
<circle cx="32" cy="32" r="32" fill="#EAEAEA"/>
<path fill-rule="evenodd" clip-rule="evenodd" d="M27.2746 20.2066C25.6457 19.0734 23.6981 18.5068 21.4317 18.5068C19.1654 18.5068 17.2178 19.0734 15.5889 20.2066C13.96 21.3161 12.7324 22.8506 11.9061 24.81C11.0799 26.7694 10.6667 29.0121 10.6667 31.5381C10.6667 34.0641 11.0799 36.3068 11.9061 38.2663C12.7324 40.2257 13.96 41.772 15.5889 42.9051C17.2178 44.0147 19.1654 44.5695 21.4317 44.5695C23.6981 44.5695 25.6457 44.0147 27.2746 42.9051C28.9035 41.772 30.1311 40.2257 30.9573 38.2663C31.7836 36.3068 32.1967 34.0641 32.1967 31.5381C32.1967 29.0121 31.7836 26.7694 30.9573 24.81C30.1311 22.8506 28.9035 21.3161 27.2746 20.2066ZM24.4992 24.5706C23.7078 23.7387 22.6853 23.3228 21.4317 23.3228C19.7556 23.3228 18.4808 24.0664 17.6073 25.5537C16.7575 27.0409 16.3325 29.0358 16.3325 31.5381C16.3325 33.109 16.5 34.48 16.8349 35.6508L24.4992 24.5706ZM18.3417 38.5029C19.1467 39.3366 20.1767 39.7535 21.4317 39.7535C23.1079 39.7535 24.3709 39.0099 25.2207 37.5226C26.0942 36.0354 26.531 34.0405 26.531 31.5381C26.531 29.9624 26.3578 28.588 26.0115 27.4148L18.3417 38.5029Z" fill="#26272B"/>
<path d="M38.9212 34.2293L32.2639 44.0028H38.6379L41.7541 38.4786C41.9902 38.1009 42.1318 37.6051 42.179 36.9914C42.2027 36.7553 42.2499 36.5782 42.3207 36.4602C42.3915 36.3185 42.5332 36.2477 42.7456 36.2477C43.0761 36.2477 43.265 36.4602 43.3122 36.8851V36.9914C43.3594 37.6051 43.5011 38.1009 43.7371 38.4786L46.8533 44.0028H53.2273L46.57 34.2293L52.6607 25.3057H46.2867L43.7371 29.9445C43.4538 30.4403 43.3122 30.936 43.3122 31.4318C43.3122 31.6443 43.265 31.8213 43.1706 31.963C43.0997 32.1046 42.9581 32.1754 42.7456 32.1754C42.5332 32.1754 42.3797 32.1046 42.2853 31.963C42.2145 31.8213 42.179 31.6443 42.179 31.4318C42.179 30.936 42.0374 30.4403 41.7541 29.9445L39.2045 25.3057H32.8305L38.9212 34.2293Z" fill="#26272B"/>
</svg>

<svg xmlns="http://www.w3.org/2000/svg" width="64" height="64" fill="none" viewBox="0 0 64 64"><circle cx="32" cy="32" r="32" fill="#eaeaea"/><path fill="#26272b" fill-rule="evenodd" d="M27.275 20.207q-2.444-1.7-5.843-1.7t-5.843 1.7q-2.444 1.665-3.683 4.603-1.24 2.94-1.24 6.728 0 3.79 1.24 6.728 1.24 2.94 3.683 4.64 2.443 1.663 5.843 1.663t5.843-1.664q2.443-1.7 3.682-4.639 1.24-2.94 1.24-6.728 0-3.79-1.24-6.728-1.239-2.94-3.682-4.603m-2.776 4.364q-1.187-1.248-3.067-1.248-2.514 0-3.825 2.23-1.274 2.232-1.274 5.985 0 2.356.502 4.113zm-6.157 13.932q1.207 1.25 3.09 1.25 2.514 0 3.789-2.23 1.31-2.232 1.31-5.985 0-2.364-.52-4.123z" clip-rule="evenodd"/><path fill="#26272b" d="m38.921 34.23-6.657 9.773h6.374l3.116-5.524q.354-.567.425-1.488.035-.354.142-.53.105-.213.425-.213.495 0 .566.637v.106q.072.921.425 1.488l3.116 5.524h6.374l-6.657-9.774 6.09-8.923h-6.373l-2.55 4.639q-.425.743-.425 1.487 0 .319-.141.531-.107.212-.425.212-.32 0-.46-.212a1.2 1.2 0 0 1-.107-.531q0-.744-.425-1.487l-2.55-4.64h-6.373z"/></svg>
